X: 17
I: linebreak $
T: Pizocara
K: F major
M: 6/8
L: 1/8
M: 6/8
P: A (3x)
"^Piva"F2A F2A | F2F G2G | A2A c2c | d2d f2"^      (3)"z :: 
P: B (4x)
F2F F2F | F2E D2z "^(4)":| 
M: 6/4
P: C
"^Bassadanza"B4c2 d6 | f4f2 g6 |: 
P: D (3x)
_e2d2c2 B4G2 | F2G2A2 B4c2 | c2B2A2 G2F2E2 | F6 F6 "^(3)":| 
F2G2A2 B4B2 | d4d2 B6 || 
M: 6/8
P: E
"^Saltarello"G2G G3 | A2A c3 | B2B A3 | F2F D3 | G2G G3 | A2A c3 | 
B2B A3 | F2F F3 | F2G A3 | B3 B3 |: 
P: F (3x)
"^Piva"B2c d2c | d2c B3 | 
B2A F2G | A3 A2G | F2F A2G | F3 F3 "^(3)":| 

